assets/img/why-affordable.svg

<?xml version="1.0" encoding="UTF-8"?>
<svg width="102px" height="102px" viewBox="0 0 102 102" version="1.1" xmlns="http://www.w3.org/2000/svg" xmlns:xlink="http://www.w3.org/1999/xlink">
    <!-- Generator: Sketch 48.2 (47327) - http://www.bohemiancoding.com/sketch -->
    <title>Affordable</title>
    <desc>Created with Sketch.</desc>
    <defs></defs>
    <g id="Page-1" stroke="none" stroke-width="1" fill="none" fill-rule="evenodd">
        <g id="Affordable" transform="translate(1.000000, 1.000000)" stroke="#4B5763">
            <circle id="Oval" cx="50" cy="50" r="50"></circle>
            <path d="M72.0770519,33.6063652 L57.7453936,35.879397 C57.0262387,34.0558256 56.3777248,32.7909025 55.7998325,32.0845896 C55.2219402,31.3782768 54.2652216,30.6655536 52.9296482,29.9463987 L52.9296482,41.080402 C60.7376158,43.1608144 65.9514107,45.3567724 68.5711893,47.6683417 C72.0385433,50.7761183 73.7721943,54.7185691 73.7721943,59.4958124 C73.7721943,62.2953797 73.1493641,64.8637516 71.9036851,67.201005 C70.6580061,69.5382585 69.0656155,71.4902211 67.1264657,73.0569514 C65.1873158,74.6236818 63.1261974,75.7601863 60.9430486,76.4664992 C58.7598997,77.172812 56.088793,77.5901724 52.9296482,77.718593 L52.9296482,85 L47.3048576,85 L47.3048576,77.718593 C43.5292944,77.3846996 40.4665109,76.7747113 38.1164154,75.8886097 C35.7663199,75.0025081 33.7373061,73.7761106 32.0293132,72.2093802 C30.3213203,70.6426499 29.0050297,68.9539454 28.080402,67.1432161 C27.1557743,65.3324868 26.4623139,63.1429497 26,60.5745394 L41.5644891,58.7638191 C42.026803,61.3065454 42.6496332,63.1429313 43.4329983,64.2730318 C44.2163635,65.4031324 45.5069704,66.4047974 47.3048576,67.278057 L47.3048576,53.678392 C42.1166686,52.2400821 38.437476,50.9944218 36.2671692,49.9413735 C34.0968624,48.8883253 32.21553,47.1996208 30.6231156,44.8752094 C29.0307011,42.550798 28.2345059,39.719168 28.2345059,36.3802345 C28.2345059,31.808464 29.8333173,27.9880109 33.0309883,24.9187605 C36.2286592,21.8495101 40.9865681,20.1479637 47.3048576,19.8140704 L47.3048576,16 L52.9296482,16 L52.9296482,19.8140704 C58.6828875,20.1736478 63.0812243,21.5348849 66.1247906,23.8978224 C69.1683569,26.26076 71.1524242,29.4969085 72.0770519,33.6063652 Z M47.3048576,29.7537688 C45.661075,30.293135 44.5181495,30.9609117 43.8760469,31.7571189 C43.2339443,32.5533261 42.9128978,33.4907819 42.9128978,34.5695142 C42.9128978,35.6996148 43.2403652,36.682017 43.8953099,37.5167504 C44.5502545,38.3514838 45.6867591,39.0513651 47.3048576,39.6164154 L47.3048576,29.7537688 Z M52.9296482,67.6633166 C55.1127971,67.1753186 56.7116086,66.3727024 57.7261307,65.2554439 C58.7406528,64.1381854 59.2479062,62.8861041 59.2479062,61.4991625 C59.2479062,60.2920096 58.8177039,59.1811888 57.9572864,58.1666667 C57.096869,57.1521446 55.4210063,56.2082679 52.9296482,55.3350084 L52.9296482,67.6633166 Z" id="$"></path>
        </g>
    </g>
</svg>

<svg width="102" height="102" viewBox="0 0 102 102" xmlns="http://www.w3.org/2000/svg"><title>Affordable</title><g transform="translate(1 1)" stroke="#4B5763" fill="none" fill-rule="evenodd"><circle cx="50" cy="50" r="50"/><path d="M72.077 33.606L57.745 35.88c-.719-1.823-1.367-3.088-1.945-3.794-.578-.707-1.535-1.42-2.87-2.139V41.08c7.808 2.08 13.021 4.277 15.641 6.588 3.468 3.108 5.201 7.05 5.201 11.828 0 2.8-.623 5.368-1.868 7.705-1.246 2.337-2.838 4.29-4.778 5.856-1.939 1.567-4 2.703-6.183 3.41-2.183.706-4.854 1.123-8.013 1.252V85h-5.625v-7.281c-3.776-.334-6.838-.944-9.189-1.83-2.35-.886-4.379-2.113-6.087-3.68-1.708-1.566-3.024-3.255-3.949-5.066-.924-1.81-1.618-4-2.08-6.568l15.564-1.811c.463 2.543 1.086 4.379 1.869 5.509.783 1.13 2.074 2.132 3.872 3.005v-13.6c-5.188-1.438-8.868-2.684-11.038-3.737s-4.051-2.741-5.644-5.066c-1.592-2.324-2.388-5.156-2.388-8.495 0-4.572 1.598-8.392 4.796-11.461 3.198-3.07 7.956-4.771 14.274-5.105V16h5.625v3.814c5.753.36 10.151 1.72 13.195 4.084 3.043 2.363 5.027 5.599 5.952 9.708zm-24.772-3.852c-1.644.54-2.787 1.207-3.429 2.003-.642.796-.963 1.734-.963 2.813 0 1.13.327 2.112.982 2.947.655.834 1.792 1.534 3.41 2.1v-9.863zm5.625 37.91c2.183-.489 3.782-1.291 4.796-2.409 1.015-1.117 1.522-2.369 1.522-3.756 0-1.207-.43-2.318-1.29-3.332-.861-1.015-2.537-1.959-5.028-2.832v12.328z"/></g></svg>
